X: 37759
T: Sommer 2003
R: jig
M: 6/8
K: Eminor
|:eBG EGB|eBG EFG|AGA FGA|BAB dBd|
eBG EGB|eBG E2G|AGA FGA|BGE E3:|
|:efe B2e|efe B2^c|ded AFD|DFA Bgf|
efe B2e|efe B2^c|ded AFD|DEF E3:|

